/* XPM */
static const char *BRICK_WEST[] = {
/* columns rows colors chars-per-pixel */
"64 64 63 1 ",
"  c #998f8f",
". c #130404",
"X c #1F1B18",
"o c #251B16",
"O c #281D17",
"+ c #211C19",
"@ c #291E19",
"# c #2F201A",
"$ c #32221B",
"% c #38271D",
"& c #3A291E",
"* c #2D3334",
"= c #303537",
"- c #313738",
"; c #313839",
": c #3F3C39",
"> c #413E3B",
", c #43413D",
"< c #464540",
"1 c #494741",
"2 c #4B4944",
"3 c #534E49",
"4 c #55514C",
"5 c #56524D",
"6 c #53564F",
"7 c #58534E",
"8 c #58544F",
"9 c #5D584F",
"0 c #535650",
"q c #545751",
"w c #5A5650",
"e c #565952",
"r c #5F5951",
"t c #585B54",
"y c #5A5E56",
"u c #615D4B",
"i c #635E4D",
"p c #645E4E",
"a c #605B52",
"s c #625C53",
"d c #645F56",
"f c #655F56",
"g c #64604E",
"h c #676350",
"j c #676356",
"k c #676456",
"l c #696451",
"z c #6A6552",
"x c #696557",
"c c #676258",
"v c #6A6658",
"b c #6C685A",
"n c #6E6F6B",
"m c #6E726F",
"M c #72726E",
"N c #74746D",
"B c #77776F",
"V c #737570",
"C c #737774",
"Z c #757876",
"A c #797970",
"S c #777A78",
"D c #7A7E7B",
/* pixels */
"@@@@O@$$&&$$&$&$$$$$o$$&&$&$$$$oooo$o$$&&&&&$&$ooooo$o$&&&$&$$$$",
"zzzzz828$&&&&$$$2vvg52>o&MSmxxiiiiiii522225vxvvvvxvp52>$&VDVvbgh",
"ywwwtt82hhbbvggvve55252+$Bq5555iiiq5553>55q5555ix555252+$Ae555he",
"wwwyy88775e555gee555525*$x555560qq55553336535qi55555525*ov555ge5",
"wyyt887,55575ge55555555+$x555xx3q33535533i55xx555555555+ov55b55e",
"yy88887,5555v5555555332+ox50i330363352335i3i55555555552+$v5ev5e7",
"8w8887,5555ev5e55555r>*+$j5i63636633233333u033333555a>*+Ov5g555e",
"w882725855ge5q5e5555>>**oki3353633313133ii0636303555>>**$vg555e5",
"8w8,777575geq5q5555r>>*+o1j333333323133336360363353r>>*+o2v55555",
"88,,575555pe5ee555a>1>**o2333333333133336366366333r:2>**$2555555",
"8f,2525555e5555525>231:*#:3333333r:1333:3633333313:232>*$>555555",
"f,25255555555532522335:*o>:333339:13333363333331312333>*$*>55555",
"28275555555552513333333+#:1333r::1333333333331313333335+$:2355s>",
"88575552525555533353331+#13333:::>133333313333333333352+#255a>>>",
"85>,255>52>>>35333>:33:+#1::31****:>331:31:::33333::33> #2>>>>>2",
"==**+*+  ++++*+******X+#%o+XXX+*+****+++  +++*+******+ #% +++*+*",
"&$oooo$o$oooo##o##oo#o#%%%o#oo#o##o#oooooo#o##o#oooo#&%%&o$o#o$&",
"hg52>&&$xqii60q:*o#ojj6j6nnjnjjj1:::11$%%njjjj:*::111>::5356iiii",
"e5e52+&Me55x63636*oj66333363333uj3:113X#j633333:*133331>333333iq",
"55555*ov55x0563q6*::j333333336u3333231X%j33u3331:333313133353iq5",
"eee5>+$x5x35q53333jnn3333333jj33333311+#j3u33333:33333133533x35q",
"e555>*ox535333333333333:333u3333333132*oju6333313:3333313333k50q",
"5e5>5*o>533533133333333333u6333333331:+#n63633331:3333333333335q",
"75255*o*>23231333313333333633333333r::*oj36333333:313333333533q5",
"55555*o>*>:513131131333333633636333r:3*ou663333311:3333333555555",
"55552*o>253>::2:1333333333336663333:1:*#333333331331333333333355",
"55522*o255333213:333333333336633333::3*o>3333331333333333>333555",
"55,>>*o2353353323133933333366363333:3:*#:33j33331333rr1:3::33353",
">,252+o>32335333333r13333363633<33:131*#j6333333333313133311325:",
">5522+$>2325133333r13113313333:331:313X$133333333333331333132322",
"5>25>+o>>23231333r::11*33:13::3331:11:+#:13::>3333331333313122>>",
"*=*++o$o+++***+*****+*+X X+*X******X+ o%#+*+*******++ +  X+++*+*",
"Oooooo$#oo##o#o@o#####o#oooo###$#oo#o#o%%%%%#%#oooo#o$oo&#&$##$$",
"vvgq53i5iii&%%$%##1jju31:o#oCnnnuuuuu313jjj6uuuuuuu31>o%$#ZBjjkx",
"hge5555>55qkjiujjjj633131+oB6333u6336631333333r6333631+#%n6333ii",
"ee5555555q6333i6666333313*#j333u6336633333333r63336333*%#j333600",
"e555555505655i63633333333+oj33j33666333:3333r33366663:+$$j33kj55",
"5e5552555333j336333333331+oj36j363633333333jrr6666333:*#oi3u350q",
"ee552555533qx3633333339:*Xoj3u33363333:333j111336363:3*##ii63655",
"7552525555303636333333::**oju33363313133jr131316333133*$oj6535qq",
"5725255555306365333339::*+o1j333333>333611313133333333*o1j655555",
"75525555553q300331339:1:**$1333333::336333133333333331*#j6333555",
"7f,2555>555555331113:131:*o:333339:131333:3<3333333311*ok5333555",
"f,2555555555553231311333:*#::3333:13133313333333333:::*#u3355555",
",255555555535223232333333+o:1333:31333333>113139:::131+o31335a>>",
",,2755555255535233533333<+#133r::33333333113131:1:3322+o23255>>>",
"=*>,552>52>>>5533333>>33:+#1::::13:>133:313111:3:3:13>+o>2552***",
"+===*+++   +++ ++*  +**XXo%#XX+*****+*++ ++++*+*****++oo++*+++**",
"$ooOoo$o$$oo$o$$$$o$oo#o##%%##%$%#####o##########oooo$o$o%&&%&$&",
"zhhghg52>$$oSBBxkx21>ooomjjjjjjj1o11:::11%%&#######o#xkx2>+Mxqpp",
"zte775e52+oMppi35ix35>jm12230331*uj33:13:X%#Znjjjjjxx3qq5255q555",
"t8877e755*$g5i5qi55352113235333*B3333333:X$n33j630q555535555555g",
"w88teee5,+o5g5xx55535333113332j:i333333r:+&j3j33633555555>5555v5",
"88ett775,*og5p555555535251>33u:36333353>**#j3353335555555>555ev7",
"8w8y8e5,5*o5ge55555535232>533133363333r*>+#>53333555355555555g55",
"wwy887275*oge5555555555r35>23533355335>>2*$*>232553525555555g578",
"ww88w8858=ohe55e50555555525>3535335532335*o>*>>5252252555555b757",
"wwww88882*$g55eee55555a5222>53555333r3335*$>255>>>25555555555575",
"wwww88822=oh55ee555555a2>2255555535>>225>*o2555555>5555555557878",
"wwww88,,,=$h7ee5e555552>5555555>52>>2555>*o25555525255f55555,788",
"wcc,,,282+$gyt5e555552>5>555>e>5555552552+o>525555555s25555,2282",
"3<,3,ww22+&8t8e572555,5255555>5>555525555*o>25255555f27257722828",
"<<w<w,3w,+$28777,5552,2*+>>2>5>>>55555555+O>>252555f>,2257828223",
"O;;;---++$&$+=+*=+*+++ +++ ++*+****.**++ ooo+++*+*=***+*++ ++++-"
};